X:1
T:Happy Days
M:4/4
L:1/8
K:C
 cd e2 dc d2| cB c4 z2| ef g2 fe f2| ed e4 z2| gg g2 gg g2| gg g2 gg g2|\
 ec G2 GG G2| AA c4 z2|

